X: 1
T: the Parting   [G,Gm]
C: Cyril O'Donoghue
R: waltz
S: https://wellington.session.nz/tunes/the-parting.html 2021-5-12
N: Duplicate portions converted to repeats. [JC]
M: 3/4
L: 1/8
K: G
GA \
|:   B2{A}Bc dc | B2 G2 GF | ED CD EG | D2 B,2 G,2 ||\
[1,3 G3 F GA | B2 A2 G2 | F4  G2 | A3 A Bc :|\
[2,4 G3 F GB | A2 E2 F2 | G3 A GF | G6 :|
K: Gm
|: B3 B cB | A2 F4 | D3 C DF | A,2 G,4 || G3 A B2 |\
[1,3 AF DC D2 | d3 A Bc | BA GF GA :|\
[2,4 AF DC D^F | G3 A G^F | G6 :|
